src/assets/text-icon.svg

<svg width="28" height="33" viewBox="0 0 28 33" fill="none" xmlns="http://www.w3.org/2000/svg">
<path d="M4.84277 1.80957C6.96484 2.18327 9.96777 2.37012 13.8516 2.37012C17.7354 2.37012 20.6115 2.18327 22.48 1.80957V1.60938C22.48 1.18229 22.6268 0.848633 22.9204 0.608398C23.2274 0.368164 23.5811 0.248047 23.9814 0.248047C24.3952 0.248047 24.7155 0.374837 24.9424 0.628418C25.1693 0.868652 25.3161 1.14225 25.3828 1.44922C25.5029 2.14323 25.7031 2.89062 25.9834 3.69141L26.3237 4.67236C26.4572 5.01937 26.6107 5.39307 26.7842 5.79346C26.9577 6.1805 27.0444 6.60091 27.0444 7.05469C27.0444 7.50846 26.9043 7.86214 26.624 8.11572C26.3571 8.3693 26.0234 8.49609 25.623 8.49609C24.8757 8.49609 24.3351 8.04899 24.0015 7.15479C23.6812 6.24723 23.2941 5.65332 22.8403 5.37305C22.3999 5.07943 21.6325 4.93262 20.5381 4.93262H20.0576L15.4932 5.25293V29.7769H17.9756C18.8965 29.7769 19.5371 29.9437 19.8975 30.2773C20.2712 30.5977 20.458 30.9714 20.458 31.3984C20.458 31.8255 20.2979 32.1992 19.9775 32.5195C19.6572 32.8398 19.11 33 18.3359 33H17.8955C17.7087 33 17.5151 33 17.3149 33C17.1147 32.9867 16.9146 32.98 16.7144 32.98C16.5142 32.9666 16.1938 32.9466 15.7534 32.9199C15.313 32.8932 14.6257 32.8799 13.6914 32.8799C12.7705 32.8799 12.0365 32.8932 11.4893 32.9199C10.9554 32.9466 10.5951 32.96 10.4082 32.96L9.80762 33C9.60742 33 9.42057 33 9.24707 33H8.78662C8.18604 33 7.70557 32.8599 7.34521 32.5796C6.99821 32.286 6.82471 31.8989 6.82471 31.4185C6.82471 30.938 7.03158 30.5443 7.44531 30.2373C7.85905 29.9303 8.40625 29.7769 9.08691 29.7769H11.7695V5.21289L9.56738 5.05273C9.15365 5.02604 8.81331 5.00602 8.54639 4.99268C8.27946 4.96598 8.05257 4.95264 7.86572 4.95264C7.67887 4.93929 7.50537 4.93262 7.34521 4.93262C7.18506 4.91927 6.77799 4.9126 6.12402 4.9126C5.47005 4.9126 4.91618 5.05941 4.4624 5.35303C4.02197 5.6333 3.67497 6.12044 3.42139 6.81445C3.16781 7.49512 2.91423 7.94889 2.66064 8.17578C2.40706 8.38932 2.08675 8.49609 1.69971 8.49609C1.29932 8.49609 0.965658 8.3693 0.69873 8.11572C0.418457 7.86214 0.27832 7.50846 0.27832 7.05469C0.27832 6.60091 0.365072 6.1805 0.538574 5.79346C0.712077 5.39307 0.86556 5.0127 0.999023 4.65234L1.33936 3.69141C1.51286 3.1709 1.63965 2.75049 1.71973 2.43018L1.93994 1.48926C2.1001 0.661784 2.53385 0.248047 3.24121 0.248047C3.94857 0.248047 4.43571 0.501628 4.70264 1.00879C4.79606 1.18229 4.84277 1.38249 4.84277 1.60938V1.80957Z" fill="#F72585"/>
</svg>

<svg width="28" height="33" fill="none" xmlns="http://www.w3.org/2000/svg"><path d="M4.843 1.81c2.122.373 5.125.56 9.009.56 3.883 0 6.76-.187 8.628-.56v-.2c0-.428.147-.761.44-1.002.307-.24.661-.36 1.061-.36.414 0 .734.127.961.38.227.24.374.514.44.821.12.694.321 1.442.601 2.242l.34.981c.134.347.288.721.461 1.121.174.388.26.808.26 1.262 0 .453-.14.807-.42 1.06-.267.254-.6.381-1.001.381-.747 0-1.288-.447-1.622-1.341-.32-.908-.707-1.502-1.16-1.782-.441-.294-1.209-.44-2.303-.44h-.48l-4.565.32v24.524h2.483c.92 0 1.561.167 1.922.5.373.32.56.694.56 1.121 0 .428-.16.801-.48 1.122-.32.32-.868.48-1.642.48h-1.021c-.2-.013-.4-.02-.6-.02l-.962-.06c-.44-.027-1.127-.04-2.062-.04-.92 0-1.655.013-2.202.04-.534.027-.894.04-1.08.04l-.601.04H8.787c-.601 0-1.081-.14-1.442-.42-.347-.294-.52-.681-.52-1.161 0-.481.207-.875.62-1.182.414-.307.961-.46 1.642-.46h2.683V5.213l-2.203-.16a73.21 73.21 0 0 0-1.02-.06 7.007 7.007 0 0 0-.681-.04 7.336 7.336 0 0 0-.52-.02c-.16-.014-.568-.02-1.222-.02s-1.208.146-1.662.44c-.44.28-.787.767-1.04 1.461-.254.681-.508 1.135-.761 1.362-.254.213-.574.32-.961.32-.4 0-.734-.127-1.001-.38-.28-.254-.42-.608-.42-1.061 0-.454.086-.874.26-1.262.173-.4.327-.78.46-1.14l.34-.962c.174-.52.3-.94.38-1.26l.22-.942C2.1.662 2.535.248 3.242.248c.708 0 1.195.254 1.462.76.093.174.14.374.14.601v.2Z" fill="#F72585"/></svg>
